X:1
T: James F. Dickie
C:J. Murdoch Henderson
R:Reel
Q: 232
K:A
M:4/4
L:1/8
|:F|E2 cA F2 BA|GB df e2 cA|E2 cA F2 Bc|dc BA GB AF|
E2 cA F2 BA|GB df e2 ca|d2 fa e2 gb|af ed cA Ag|
a2 Aa g2 Ag|fg af ec ea|cA A2 fe dc|BF BA GB eg|
ag fa gf eg|fg af ec ea|dc df ea gb|af ed cA A:|
